X: 65
T: 549 Cm
R: reel
M: 4/4
K: Bminor
BFBd f2 ec|dB zB cA z2|BAFA B3c|decd B4|
BAFA B2 Bc|d2 de cAdc|BFBd f2 ec|1 decd Bz z2:|2 decd Bz BA||
|:G3B d2 GB|d2 decA z2|GFGB d2 GB|dcde fdcA|
[1 G3B d2 GB|d2 decA A/A/A|fd d/d/d ec c/c/c|dcde fdcA:|
[2 G3B d2 GB|d2 decA A/A/A|Bd d/d/d ce e/e/e|defd edcA||

